X:18903
T:Wonderful Chimes(?),The,1st part. JNu.20
M:6/8
L:1/8
Q:100
S:James Nuttall MS,c1830?,Rossendale,East Lancs.
R:Air
O:England
A:East Lancashire
N:May be Times not Chimes, not definite in MS..CGP
Z:vmp.Manchester Morris Men
K:Bb
"primo"F|B2B fdB|A3 A2F|c2c _ecA|B3 Bzf|!
b2b d'2b|g2g _e2g|f2f fga|[d3b3]-[d2b2]::!
A/B/|c2c afc|B3 B2G/A/|B2B g=eB|A3 A2A/B/|!
cac BgB|AfA G=eG|Fdd G=ee|[A3f3] [A2f2]:|]


